X:149
T:Aldridge's Rant
M: C|
L:1/8
B:Thompson's Compleat Collection of 200 Favourite Country Dances, vol. 3 (London, 1773)
Z:Transcribed and edited by Flynn Titford-Mock, 2007
Z:abc's:AK/Fiddler's Companion
K:D
d>ef>e d>cB>A | BdAF E/E/E E2 | d>ef>e d>cB>A | B>dA>F D/D/D D2 :|
|: DD/D/ AF DD/D/ AF | EE/E/ BG EE/E/ BG | DD/D/ AF DD/D/ AF | GBAF DD/D/ D2 :|
|: a>ba>f a>ba>f | gebe gebe | a>ba>f a>ba>f | geaf dd/d/ d2 :|

